X:1
T: The Laune Rangers
C:
R:Reel
Q: 232
K:D
M:4/4
L:1/8
|:((3ABc) |dc df ec dB|A2 ((3FED) FA AB|dc df ec dB|BA FA BE ((3FED) |
dc df ec dB|A2 ((3FED) FA AB|dc df ec dB|BA FA BE ((3FED) |
Be ee eg fe|de fg af df|e2 ef g2 fe|dB A=c BE ED|
Be ((3eee) eg fe|de fg af df|gf ge fg fe|dB A=c BE ED:|
